X: 1
T: Midsummer Morn
C: Sarah Hydern
S: handwritten MS
R: reel
Z: 2006 John Chambers <jc:trillian.mit.edu>
M: C|
L: 1/8
K: Bm
|: "Bm"B2dB "A"cBAc | "Bm"BFdF "F#m"eFcF \
|1,3 "Bm"B2dB "A"cBAc | "F#m"FEFA Bcdc \
:|2,4 "Bm"BABc "A"dcde | "F#m"fgfe dcBc :|
|: "D"d2fd "G"gdfd | "A"ecAc d2c2 \
|1,3 "D"d2fd "G"gdfd | "A"ecAc dedc \
:|2,4 "Bm"BABc "A"dcde | "F#m"fgfe dcBA :|
